apps/ledger-live-desktop/src/renderer/images/lending-info-3.svg

<svg xmlns="http://www.w3.org/2000/svg" width="180" height="143" viewBox="0 0 180 143" fill="none">
<rect width="180" height="143" rx="4" fill="white"/>
<g filter="url(#filter0_d)">
<rect x="12" y="47.4968" width="156" height="17.7455" rx="2.22568" fill="white"/>
<rect x="12.2782" y="47.775" width="155.444" height="17.189" rx="1.94747" stroke="#142533" stroke-opacity="0.2" stroke-width="0.55642"/>
</g>
<rect x="16.8564" y="55.815" width="24" height="2" rx="1" fill="#142533" fill-opacity="0.2"/>
<rect x="12" y="40.3969" width="32" height="3" rx="1.5" fill="#142533" fill-opacity="0.3"/>
<rect x="12" y="77.5514" width="40" height="3" rx="1.5" fill="#142533" fill-opacity="0.3"/>
<g filter="url(#filter1_d)">
<rect x="12" y="84.6514" width="156" height="17.7455" rx="2.22568" fill="white"/>
<rect x="12.2782" y="84.9296" width="155.444" height="17.189" rx="1.94747" stroke="#142533" stroke-opacity="0.2" stroke-width="0.55642"/>
</g>
<rect x="16.8564" y="92.415" width="24" height="2" rx="1" fill="#142533" fill-opacity="0.2"/>
<rect x="147.361" y="90.1968" width="15.7821" height="6.65455" rx="1.11284" fill="#8a80db"/>
<rect x="129.152" y="90.1968" width="15.7821" height="6.65455" rx="1.11284" fill="#8a80db"/>
<rect x="110.941" y="90.1968" width="15.7821" height="6.65455" rx="1.11284" fill="#8a80db"/>
<rect x="131" y="121" width="37" height="16" rx="2" fill="#8a80db"/>
<path d="M136.751 131.333H137.531L138.407 128.272H138.441L139.314 131.333H140.094L141.326 126.97H140.475L139.689 130.179H139.651L138.809 126.97H138.036L137.196 130.176H137.156L136.37 126.97H135.52L136.751 131.333ZM141.84 131.333H142.611V128.061H141.84V131.333ZM142.227 127.596C142.472 127.596 142.673 127.409 142.673 127.179C142.673 126.946 142.472 126.759 142.227 126.759C141.98 126.759 141.78 126.946 141.78 127.179C141.78 127.409 141.98 127.596 142.227 127.596ZM145.038 128.061H144.393V127.277H143.621V128.061H143.157V128.657H143.621V130.477C143.617 131.093 144.065 131.395 144.644 131.378C144.864 131.372 145.015 131.329 145.098 131.301L144.968 130.698C144.925 130.709 144.838 130.728 144.742 130.728C144.548 130.728 144.393 130.66 144.393 130.349V128.657H145.038V128.061ZM146.525 129.416C146.525 128.943 146.819 128.67 147.232 128.67C147.637 128.67 147.876 128.928 147.876 129.369V131.333H148.647V129.25C148.647 128.459 148.2 128.018 147.52 128.018C147.017 128.018 146.698 128.246 146.546 128.617H146.508V126.97H145.754V131.333H146.525V129.416ZM150.648 131.391C151.21 131.391 151.464 131.056 151.585 130.818H151.632V131.333H152.391V126.97H151.617V128.602H151.585C151.468 128.365 151.227 128.018 150.65 128.018C149.894 128.018 149.299 128.61 149.299 129.701C149.299 130.779 149.877 131.391 150.648 131.391ZM150.863 130.758C150.354 130.758 150.085 130.311 150.085 129.697C150.085 129.088 150.35 128.651 150.863 128.651C151.36 128.651 151.632 129.062 151.632 129.697C151.632 130.332 151.355 130.758 150.863 130.758ZM153.213 131.333H153.984V129.409C153.984 128.994 154.297 128.7 154.721 128.7C154.851 128.7 155.013 128.723 155.079 128.745V128.035C155.009 128.022 154.887 128.014 154.802 128.014C154.427 128.014 154.114 128.227 153.995 128.606H153.961V128.061H153.213V131.333ZM156.469 131.399C156.982 131.399 157.289 131.159 157.43 130.884H157.455V131.333H158.197V129.143C158.197 128.278 157.492 128.018 156.867 128.018C156.179 128.018 155.651 128.325 155.48 128.921L156.2 129.024C156.277 128.8 156.494 128.608 156.872 128.608C157.23 128.608 157.426 128.791 157.426 129.113V129.126C157.426 129.348 157.193 129.358 156.616 129.42C155.981 129.488 155.374 129.678 155.374 130.415C155.374 131.058 155.845 131.399 156.469 131.399ZM156.669 130.833C156.347 130.833 156.117 130.686 156.117 130.402C156.117 130.106 156.375 129.982 156.72 129.933C156.923 129.906 157.328 129.855 157.428 129.774V130.159C157.428 130.524 157.134 130.833 156.669 130.833ZM159.648 131.333H160.453L161.067 129.122H161.112L161.725 131.333H162.529L163.455 128.061H162.667L162.1 130.349H162.068L161.48 128.061H160.703L160.115 130.362H160.085L159.509 128.061H158.723L159.648 131.333Z" fill="white"/>
<path d="M51.2479 23H52.5476L54.0071 17.897H54.0639L55.5199 23H56.8196L58.8722 15.7273H57.4553L56.1449 21.0753H56.081L54.6783 15.7273H53.3892L51.9901 21.0717H51.9226L50.6122 15.7273H49.1953L51.2479 23ZM59.7289 23H61.0144V17.5455H59.7289V23ZM60.3752 16.7713C60.7836 16.7713 61.1174 16.4588 61.1174 16.0753C61.1174 15.6882 60.7836 15.3757 60.3752 15.3757C59.9632 15.3757 59.6294 15.6882 59.6294 16.0753C59.6294 16.4588 59.9632 16.7713 60.3752 16.7713ZM65.06 17.5455H63.984V16.2386H62.6985V17.5455H61.9244V18.5398H62.6985V21.5724C62.6914 22.5987 63.4371 23.103 64.4031 23.0746C64.7688 23.0639 65.021 22.9929 65.1594 22.9467L64.9428 21.9418C64.8718 21.9595 64.7262 21.9915 64.5664 21.9915C64.2433 21.9915 63.984 21.8778 63.984 21.3594V18.5398H65.06V17.5455ZM67.5378 19.804C67.5378 19.0156 68.0279 18.5611 68.7168 18.5611C69.3915 18.5611 69.7892 18.9908 69.7892 19.7259V23H71.0748V19.527C71.0748 18.2095 70.329 17.4744 69.1962 17.4744C68.3581 17.4744 67.8255 17.8544 67.5733 18.4723H67.5094V15.7273H66.2523V23H67.5378V19.804ZM74.4093 23.0959C75.3468 23.0959 75.7694 22.5384 75.9718 22.1406H76.0499V23H77.3141V15.7273H76.025V18.4474H75.9718C75.7765 18.0533 75.3752 17.4744 74.4128 17.4744C73.1522 17.4744 72.1614 18.4616 72.1614 20.2798C72.1614 22.0767 73.1238 23.0959 74.4093 23.0959ZM74.7679 22.0412C73.9192 22.0412 73.4718 21.2955 73.4718 20.2727C73.4718 19.2571 73.9121 18.5291 74.7679 18.5291C75.5953 18.5291 76.0499 19.2145 76.0499 20.2727C76.0499 21.331 75.5882 22.0412 74.7679 22.0412ZM78.6839 23H79.9695V19.7933C79.9695 19.1009 80.4915 18.6108 81.1982 18.6108C81.4148 18.6108 81.6847 18.6499 81.7947 18.6854V17.5028C81.6776 17.4815 81.4751 17.4673 81.3331 17.4673C80.7081 17.4673 80.1861 17.8224 79.9872 18.4545H79.9304V17.5455H78.6839V23ZM84.111 23.1101C84.9668 23.1101 85.4782 22.7088 85.7125 22.2507H85.7551V23H86.9909V19.3494C86.9909 17.9077 85.8155 17.4744 84.775 17.4744C83.628 17.4744 82.7473 17.9858 82.4632 18.9801L83.6635 19.1506C83.7914 18.7777 84.1536 18.4581 84.7821 18.4581C85.3787 18.4581 85.7054 18.7635 85.7054 19.2997V19.321C85.7054 19.6903 85.3184 19.7081 84.356 19.8111C83.2978 19.9247 82.2857 20.2408 82.2857 21.4695C82.2857 22.5419 83.0705 23.1101 84.111 23.1101ZM84.4448 22.1655C83.9086 22.1655 83.525 21.9205 83.525 21.4482C83.525 20.9545 83.9547 20.7486 84.53 20.6669C84.8674 20.6207 85.5421 20.5355 85.709 20.4006V21.0433C85.709 21.6506 85.2189 22.1655 84.4448 22.1655ZM89.4093 23H90.7516L91.7743 19.3139H91.8489L92.8716 23H94.2104L95.7551 17.5455H94.4412L93.4966 21.3594H93.4434L92.4632 17.5455H91.1671L90.187 21.3807H90.1373L89.1784 17.5455H87.8681L89.4093 23ZM100.703 23.1101C101.559 23.1101 102.07 22.7088 102.304 22.2507H102.347V23H103.583V19.3494C103.583 17.9077 102.407 17.4744 101.367 17.4744C100.22 17.4744 99.3391 17.9858 99.055 18.9801L100.255 19.1506C100.383 18.7777 100.745 18.4581 101.374 18.4581C101.971 18.4581 102.297 18.7635 102.297 19.2997V19.321C102.297 19.6903 101.91 19.7081 100.948 19.8111C99.8896 19.9247 98.8775 20.2408 98.8775 21.4695C98.8775 22.5419 99.6623 23.1101 100.703 23.1101ZM101.037 22.1655C100.5 22.1655 100.117 21.9205 100.117 21.4482C100.117 20.9545 100.547 20.7486 101.122 20.6669C101.459 20.6207 102.134 20.5355 102.301 20.4006V21.0433C102.301 21.6506 101.811 22.1655 101.037 22.1655ZM109.186 18.9872C109.009 18.0639 108.27 17.4744 106.992 17.4744C105.678 17.4744 104.783 18.1207 104.787 19.1293C104.783 19.9247 105.273 20.4503 106.321 20.6669L107.251 20.8622C107.752 20.9723 107.986 21.1747 107.986 21.4837C107.986 21.8565 107.581 22.1371 106.971 22.1371C106.381 22.1371 105.998 21.8814 105.887 21.3913L104.634 21.5121C104.794 22.5135 105.635 23.1065 106.974 23.1065C108.338 23.1065 109.3 22.3999 109.304 21.3665C109.3 20.5888 108.799 20.1129 107.77 19.8892L106.839 19.6903C106.285 19.5661 106.065 19.3743 106.069 19.0582C106.065 18.6889 106.473 18.4332 107.01 18.4332C107.603 18.4332 107.915 18.7564 108.015 19.1151L109.186 18.9872ZM114.675 18.9872C114.497 18.0639 113.759 17.4744 112.48 17.4744C111.166 17.4744 110.271 18.1207 110.275 19.1293C110.271 19.9247 110.761 20.4503 111.809 20.6669L112.739 20.8622C113.24 20.9723 113.474 21.1747 113.474 21.4837C113.474 21.8565 113.07 22.1371 112.459 22.1371C111.869 22.1371 111.486 21.8814 111.376 21.3913L110.122 21.5121C110.282 22.5135 111.124 23.1065 112.462 23.1065C113.826 23.1065 114.788 22.3999 114.792 21.3665C114.788 20.5888 114.288 20.1129 113.258 19.8892L112.327 19.6903C111.773 19.5661 111.553 19.3743 111.557 19.0582C111.553 18.6889 111.962 18.4332 112.498 18.4332C113.091 18.4332 113.403 18.7564 113.503 19.1151L114.675 18.9872ZM118.267 23.1065C119.538 23.1065 120.412 22.4851 120.639 21.5369L119.439 21.402C119.265 21.8636 118.838 22.1051 118.284 22.1051C117.453 22.1051 116.903 21.5582 116.892 20.6243H120.692V20.2301C120.692 18.3161 119.542 17.4744 118.199 17.4744C116.637 17.4744 115.618 18.6214 115.618 20.3047C115.618 22.0163 116.623 23.1065 118.267 23.1065ZM116.896 19.7578C116.935 19.0618 117.45 18.4759 118.217 18.4759C118.956 18.4759 119.453 19.0156 119.46 19.7578H116.896ZM124.503 17.5455H123.427V16.2386H122.142V17.5455H121.368V18.5398H122.142V21.5724C122.135 22.5987 122.881 23.103 123.846 23.0746C124.212 23.0639 124.464 22.9929 124.603 22.9467L124.386 21.9418C124.315 21.9595 124.17 21.9915 124.01 21.9915C123.687 21.9915 123.427 21.8778 123.427 21.3594V18.5398H124.503V17.5455ZM129.811 18.9872C129.634 18.0639 128.895 17.4744 127.617 17.4744C126.303 17.4744 125.408 18.1207 125.412 19.1293C125.408 19.9247 125.898 20.4503 126.946 20.6669L127.876 20.8622C128.377 20.9723 128.611 21.1747 128.611 21.4837C128.611 21.8565 128.206 22.1371 127.596 22.1371C127.006 22.1371 126.623 21.8814 126.512 21.3913L125.259 21.5121C125.419 22.5135 126.26 23.1065 127.599 23.1065C128.963 23.1065 129.925 22.3999 129.929 21.3665C129.925 20.5888 129.424 20.1129 128.395 19.8892L127.464 19.6903C126.91 19.5661 126.69 19.3743 126.694 19.0582C126.69 18.6889 127.098 18.4332 127.635 18.4332C128.228 18.4332 128.54 18.7564 128.64 19.1151L129.811 18.9872Z" fill="black"/>
<line x1="180" y1="115.25" x2="-2.18557e-08" y2="115.25" stroke="#142533" stroke-opacity="0.1" stroke-width="0.5"/>
<defs>
<filter id="filter0_d" x="8.66148" y="45.8276" width="162.677" height="24.4225" filterUnits="userSpaceOnUse" color-interpolation-filters="sRGB">
<feFlood flood-opacity="0" result="BackgroundImageFix"/>
<feColorMatrix in="SourceAlpha" type="matrix" values="0 0 0 0 0 0 0 0 0 0 0 0 0 0 0 0 0 0 127 0"/>
<feOffset dy="1.66926"/>
<feGaussianBlur stdDeviation="1.66926"/>
<feColorMatrix type="matrix" values="0 0 0 0 0 0 0 0 0 0 0 0 0 0 0 0 0 0 0.04 0"/>
<feBlend mode="normal" in2="BackgroundImageFix" result="effect1_dropShadow"/>
<feBlend mode="normal" in="SourceGraphic" in2="effect1_dropShadow" result="shape"/>
</filter>
<filter id="filter1_d" x="8.66148" y="82.9821" width="162.677" height="24.4225" filterUnits="userSpaceOnUse" color-interpolation-filters="sRGB">
<feFlood flood-opacity="0" result="BackgroundImageFix"/>
<feColorMatrix in="SourceAlpha" type="matrix" values="0 0 0 0 0 0 0 0 0 0 0 0 0 0 0 0 0 0 127 0"/>
<feOffset dy="1.66926"/>
<feGaussianBlur stdDeviation="1.66926"/>
<feColorMatrix type="matrix" values="0 0 0 0 0 0 0 0 0 0 0 0 0 0 0 0 0 0 0.04 0"/>
<feBlend mode="normal" in2="BackgroundImageFix" result="effect1_dropShadow"/>
<feBlend mode="normal" in="SourceGraphic" in2="effect1_dropShadow" result="shape"/>
</filter>
</defs>
</svg>

<svg xmlns="http://www.w3.org/2000/svg" width="180" height="143" fill="none" viewBox="0 0 180 143"><rect width="180" height="143" fill="#fff" rx="4"/><g filter="url(#a)"><rect width="156" height="17.745" x="12" y="47.497" fill="#fff" rx="2.226"/><rect width="155.444" height="17.189" x="12.278" y="47.775" stroke="#142533" stroke-opacity=".2" stroke-width=".556" rx="1.947"/></g><rect width="24" height="2" x="16.856" y="55.815" fill="#142533" fill-opacity=".2" rx="1"/><rect width="32" height="3" x="12" y="40.397" fill="#142533" fill-opacity=".3" rx="1.5"/><rect width="40" height="3" x="12" y="77.551" fill="#142533" fill-opacity=".3" rx="1.5"/><g filter="url(#b)"><rect width="156" height="17.745" x="12" y="84.651" fill="#fff" rx="2.226"/><rect width="155.444" height="17.189" x="12.278" y="84.93" stroke="#142533" stroke-opacity=".2" stroke-width=".556" rx="1.947"/></g><rect width="24" height="2" x="16.856" y="92.415" fill="#142533" fill-opacity=".2" rx="1"/><rect width="15.782" height="6.655" x="147.361" y="90.197" fill="#8a80db" rx="1.113"/><rect width="15.782" height="6.655" x="129.152" y="90.197" fill="#8a80db" rx="1.113"/><rect width="15.782" height="6.655" x="110.941" y="90.197" fill="#8a80db" rx="1.113"/><rect width="37" height="16" x="131" y="121" fill="#8a80db" rx="2"/><path fill="#fff" d="M136.751 131.333h.78l.876-3.061h.034l.873 3.061h.78l1.232-4.363h-.851l-.786 3.209h-.038l-.842-3.209h-.773l-.84 3.206h-.04l-.786-3.206h-.85zm5.089 0h.771v-3.272h-.771zm.387-3.737c.245 0 .446-.187.446-.417 0-.233-.201-.42-.446-.42-.247 0-.447.187-.447.42 0 .23.2.417.447.417m2.811.465h-.645v-.784h-.772v.784h-.464v.596h.464v1.82c-.004.616.444.918 1.023.901.22-.006.371-.049.454-.077l-.13-.603a1 1 0 0 1-.226.03c-.194 0-.349-.068-.349-.379v-1.692h.645zm1.487 1.355c0-.473.294-.746.707-.746.405 0 .644.258.644.699v1.964h.771v-2.083c0-.791-.447-1.232-1.127-1.232-.503 0-.822.228-.974.599h-.038v-1.647h-.754v4.363h.771zm4.123 1.975c.562 0 .816-.335.937-.573h.047v.515h.759v-4.363h-.774v1.632h-.032c-.117-.237-.358-.584-.935-.584-.756 0-1.351.592-1.351 1.683 0 1.078.578 1.69 1.349 1.69m.215-.633c-.509 0-.778-.447-.778-1.061 0-.609.265-1.046.778-1.046.497 0 .769.411.769 1.046s-.277 1.061-.769 1.061m2.35.575h.771v-1.924c0-.415.313-.709.737-.709.13 0 .292.023.358.045v-.71a2 2 0 0 0-.277-.021.816.816 0 0 0-.807.592h-.034v-.545h-.748zm3.256.066c.513 0 .82-.24.961-.515h.025v.449h.742v-2.19c0-.865-.705-1.125-1.33-1.125-.688 0-1.216.307-1.387.903l.72.103c.077-.224.294-.416.672-.416.358 0 .554.183.554.505v.013c0 .222-.233.232-.81.294-.635.068-1.242.258-1.242.995 0 .643.471.984 1.095.984m.2-.566c-.322 0-.552-.147-.552-.431 0-.296.258-.42.603-.469.203-.027.608-.078.708-.159v.385c0 .365-.294.674-.759.674m2.979.5h.805l.614-2.211h.045l.613 2.211h.804l.926-3.272h-.788l-.567 2.288h-.032l-.588-2.288h-.777l-.588 2.301h-.03l-.576-2.301h-.786z"/><path fill="#000" d="M51.248 23h1.3l1.46-5.103h.056L55.52 23h1.3l2.052-7.273h-1.417l-1.31 5.348h-.064l-1.403-5.348H53.39l-1.399 5.345h-.067l-1.31-5.345h-1.418zm8.48 0h1.286v-5.454H59.73zm.647-6.229c.409 0 .742-.312.742-.696 0-.387-.333-.7-.742-.7-.412 0-.746.313-.746.7 0 .384.334.696.746.696m4.685.774h-1.076V16.24h-1.285v1.306h-.775v.995h.775v3.032c-.008 1.027.738 1.531 1.704 1.503.366-.011.618-.082.756-.128l-.216-1.005c-.071.017-.217.05-.377.05-.323 0-.582-.114-.582-.633v-2.82h1.076zm2.478 2.259c0-.788.49-1.243 1.179-1.243.674 0 1.072.43 1.072 1.165V23h1.286v-3.473c0-1.318-.746-2.053-1.879-2.053-.838 0-1.37.38-1.623.998h-.064v-2.745h-1.257V23h1.286zm6.871 3.292c.938 0 1.36-.558 1.563-.955h.078V23h1.264v-7.273h-1.289v2.72h-.053c-.195-.394-.597-.973-1.56-.973-1.26 0-2.25.988-2.25 2.806 0 1.797.962 2.816 2.247 2.816m.359-1.055c-.849 0-1.296-.745-1.296-1.768 0-1.016.44-1.744 1.296-1.744.827 0 1.282.686 1.282 1.744s-.462 1.768-1.282 1.768m3.916.959h1.285v-3.207c0-.692.523-1.182 1.23-1.182.216 0 .486.039.596.074v-1.182a3 3 0 0 0-.462-.036c-.625 0-1.147.355-1.346.988h-.057v-.91h-1.246zm5.427.11c.856 0 1.367-.401 1.602-.86h.042V23h1.236v-3.65c0-1.442-1.175-1.876-2.216-1.876-1.147 0-2.028.512-2.312 1.506l1.2.17c.128-.372.49-.692 1.12-.692.596 0 .922.306.922.842v.021c0 .37-.387.387-1.349.49-1.058.114-2.07.43-2.07 1.659 0 1.072.784 1.64 1.825 1.64m.334-.944c-.536 0-.92-.245-.92-.718 0-.494.43-.7 1.005-.781.337-.046 1.012-.132 1.179-.266v.642c0 .608-.49 1.123-1.264 1.123m4.964.834h1.343l1.022-3.686h.075L92.872 23h1.338l1.545-5.454h-1.314l-.944 3.813h-.054l-.98-3.814h-1.296l-.98 3.836h-.05l-.959-3.835h-1.31zm11.294.11c.856 0 1.367-.401 1.601-.86h.043V23h1.236v-3.65c0-1.442-1.176-1.876-2.216-1.876-1.147 0-2.028.512-2.312 1.506l1.2.17c.128-.372.49-.692 1.119-.692.597 0 .923.306.923.842v.021c0 .37-.387.387-1.349.49-1.058.114-2.07.43-2.07 1.659 0 1.072.784 1.64 1.825 1.64m.334-.944c-.537 0-.92-.245-.92-.718 0-.494.43-.7 1.005-.781.337-.046 1.012-.132 1.179-.266v.642c0 .608-.49 1.123-1.264 1.123m8.149-3.179c-.177-.923-.916-1.513-2.194-1.513-1.314 0-2.209.647-2.205 1.655-.004.796.486 1.321 1.534 1.538l.93.195c.501.11.735.313.735.622 0 .372-.405.653-1.015.653-.59 0-.973-.256-1.084-.746l-1.253.121c.16 1.002 1.001 1.595 2.34 1.595 1.364 0 2.326-.707 2.33-1.74-.004-.778-.505-1.254-1.534-1.478l-.931-.199c-.554-.124-.774-.316-.77-.632-.004-.37.404-.625.941-.625.593 0 .905.323 1.005.682zm5.489 0c-.178-.923-.916-1.513-2.195-1.513-1.314 0-2.209.647-2.205 1.655-.004.796.486 1.321 1.534 1.538l.93.195c.501.11.735.313.735.622 0 .372-.404.653-1.015.653-.59 0-.973-.256-1.083-.746l-1.254.121c.16 1.002 1.002 1.595 2.34 1.595 1.364 0 2.326-.707 2.33-1.74-.004-.778-.504-1.254-1.534-1.478l-.931-.199c-.554-.124-.774-.316-.77-.632-.004-.37.405-.625.941-.625.593 0 .905.323 1.005.682zm3.592 4.12c1.271 0 2.145-.622 2.372-1.57l-1.2-.135c-.174.462-.601.703-1.155.703-.831 0-1.381-.547-1.392-1.48h3.8v-.395c0-1.914-1.15-2.756-2.493-2.756-1.562 0-2.581 1.147-2.581 2.83 0 1.712 1.005 2.803 2.649 2.803m-1.371-3.35c.039-.695.554-1.281 1.321-1.281.739 0 1.236.54 1.243 1.282zm7.607-2.212h-1.076V16.24h-1.285v1.306h-.774v.995h.774v3.032c-.007 1.027.739 1.531 1.704 1.503a2.6 2.6 0 0 0 .757-.128l-.217-1.005a1.6 1.6 0 0 1-.376.05c-.323 0-.583-.114-.583-.633v-2.82h1.076zm5.308 1.442c-.177-.923-.916-1.513-2.194-1.513-1.314 0-2.209.647-2.205 1.655-.004.796.486 1.321 1.534 1.538l.93.195c.501.11.735.313.735.622 0 .372-.405.653-1.015.653-.59 0-.973-.256-1.084-.746l-1.253.121c.16 1.002 1.001 1.595 2.34 1.595 1.364 0 2.326-.707 2.33-1.74-.004-.778-.505-1.254-1.534-1.478l-.931-.199c-.554-.124-.774-.316-.77-.632-.004-.37.404-.625.941-.625.593 0 .905.323 1.005.682z"/><path stroke="#142533" stroke-opacity=".1" stroke-width=".5" d="M180 115.25H0"/><defs><filter id="a" width="162.677" height="24.422" x="8.661" y="45.828" color-interpolation-filters="sRGB" filterUnits="userSpaceOnUse"><feFlood flood-opacity="0" result="BackgroundImageFix"/><feColorMatrix in="SourceAlpha" values="0 0 0 0 0 0 0 0 0 0 0 0 0 0 0 0 0 0 127 0"/><feOffset dy="1.669"/><feGaussianBlur stdDeviation="1.669"/><feColorMatrix values="0 0 0 0 0 0 0 0 0 0 0 0 0 0 0 0 0 0 0.04 0"/><feBlend in2="BackgroundImageFix" result="effect1_dropShadow"/><feBlend in="SourceGraphic" in2="effect1_dropShadow" result="shape"/></filter><filter id="b" width="162.677" height="24.422" x="8.661" y="82.982" color-interpolation-filters="sRGB" filterUnits="userSpaceOnUse"><feFlood flood-opacity="0" result="BackgroundImageFix"/><feColorMatrix in="SourceAlpha" values="0 0 0 0 0 0 0 0 0 0 0 0 0 0 0 0 0 0 127 0"/><feOffset dy="1.669"/><feGaussianBlur stdDeviation="1.669"/><feColorMatrix values="0 0 0 0 0 0 0 0 0 0 0 0 0 0 0 0 0 0 0.04 0"/><feBlend in2="BackgroundImageFix" result="effect1_dropShadow"/><feBlend in="SourceGraphic" in2="effect1_dropShadow" result="shape"/></filter></defs></svg>
